archdroid-icon-theme/Archdroid-Amber/mimetypes/scalable/image-gif.svg

<?xml version="1.0" encoding="UTF-8" standalone="no"?>
<svg
   xmlns:dc="http://purl.org/dc/elements/1.1/"
   xmlns:cc="http://creativecommons.org/ns#"
   xmlns:rdf="http://www.w3.org/1999/02/22-rdf-syntax-ns#"
   xmlns:svg="http://www.w3.org/2000/svg"
   xmlns="http://www.w3.org/2000/svg"
   xmlns:sodipodi="http://sodipodi.sourceforge.net/DTD/sodipodi-0.dtd"
   xmlns:inkscape="http://www.inkscape.org/namespaces/inkscape"
   fill="#F44336"
   width="48"
   height="48"
   viewBox="0 0 48 48"
   id="svg2"
   version="1.1"
   inkscape:version="0.91 r13725"
   sodipodi:docname="image-gif.svg">
  <metadata
     id="metadata10">
    <rdf:RDF>
      <cc:Work
         rdf:about="">
        <dc:format>image/svg+xml</dc:format>
        <dc:type
           rdf:resource="http://purl.org/dc/dcmitype/StillImage" />
        <dc:title></dc:title>
      </cc:Work>
    </rdf:RDF>
  </metadata>
  <defs
     id="defs8" />
  <sodipodi:namedview
     pagecolor="#ffffff"
     bordercolor="#666666"
     borderopacity="1"
     objecttolerance="10"
     gridtolerance="10"
     guidetolerance="10"
     inkscape:pageopacity="0"
     inkscape:pageshadow="2"
     inkscape:window-width="1366"
     inkscape:window-height="713"
     id="namedview6"
     showgrid="false"
     inkscape:zoom="4.9166667"
     inkscape:cx="24.074825"
     inkscape:cy="24.050928"
     inkscape:window-x="0"
     inkscape:window-y="30"
     inkscape:window-maximized="1"
     inkscape:current-layer="svg2"
     inkscape:snap-bbox="true"
     inkscape:bbox-paths="true"
     inkscape:bbox-nodes="true"
     inkscape:snap-bbox-edge-midpoints="true" />
  <path
     d="M 10 6 C 7.79 6 6 7.79 6 10 L 6 38 C 6 40.21 7.79 42 10 42 L 38 42 C 40.21 42 42 40.21 42 38 L 42 10 C 42 7.79 40.21 6 38 6 L 10 6 z M 30.207031 8.8105469 C 30.349447 8.8105469 30.494141 8.8232422 30.640625 8.8476562 C 30.787109 8.8680013 30.95166 8.898763 31.134766 8.9394531 L 30.982422 10.085938 C 30.901042 10.069661 30.808757 10.057129 30.707031 10.044922 C 30.609375 10.032715 30.504557 10.025391 30.390625 10.025391 C 30.069173 10.025391 29.826823 10.117676 29.664062 10.300781 C 29.505371 10.483887 29.425781 10.746094 29.425781 11.087891 L 29.425781 11.857422 L 30.769531 11.857422 L 30.769531 12.955078 L 29.425781 12.955078 L 29.425781 18.460938 L 27.943359 18.460938 L 27.943359 12.955078 L 26.935547 12.955078 L 26.935547 11.857422 L 27.943359 11.857422 L 27.943359 11.087891 C 27.943359 10.359538 28.140462 9.7970378 28.535156 9.4023438 C 28.933919 9.0076497 29.490885 8.8105469 30.207031 8.8105469 z M 24.310547 8.9394531 L 25.794922 8.9394531 L 25.794922 10.240234 L 24.310547 10.240234 L 24.310547 8.9394531 z M 19.470703 11.734375 C 19.865397 11.734375 20.210775 11.821289 20.507812 11.992188 C 20.808919 12.159017 21.063965 12.399414 21.271484 12.716797 L 21.417969 11.857422 L 22.650391 11.857422 L 22.650391 18.460938 C 22.650391 19.311361 22.388184 19.967773 21.863281 20.431641 C 21.338379 20.895508 20.593262 21.128906 19.628906 21.128906 C 19.307454 21.128906 18.960286 21.081868 18.585938 20.988281 C 18.215658 20.898763 17.879232 20.777507 17.578125 20.626953 L 17.896484 19.460938 C 18.140625 19.587077 18.410156 19.684733 18.703125 19.753906 C 19.000163 19.827148 19.303874 19.865234 19.617188 19.865234 C 20.154297 19.865234 20.546712 19.749512 20.794922 19.517578 C 21.043132 19.289714 21.167969 18.937012 21.167969 18.460938 L 21.167969 17.783203 C 20.960449 18.047689 20.714518 18.248372 20.429688 18.386719 C 20.148926 18.520996 19.825195 18.589844 19.458984 18.589844 C 18.649251 18.589844 18.014486 18.293132 17.554688 17.703125 C 17.094889 17.113118 16.865234 16.339193 16.865234 15.378906 L 16.865234 15.25 C 16.865234 14.200195 17.094889 13.352051 17.554688 12.705078 C 18.014486 12.058105 18.652832 11.734375 19.470703 11.734375 z M 24.310547 11.857422 L 25.794922 11.857422 L 25.794922 18.460938 L 24.310547 18.460938 L 24.310547 11.857422 z M 19.849609 12.949219 C 19.340983 12.949219 18.963053 13.162598 18.714844 13.589844 C 18.470703 14.01709 18.347656 14.570475 18.347656 15.25 L 18.347656 15.378906 C 18.347656 15.985189 18.468913 16.47168 18.708984 16.837891 C 18.953125 17.200033 19.329264 17.380859 19.837891 17.380859 C 20.155273 17.380859 20.421061 17.315755 20.636719 17.185547 C 20.856445 17.05127 21.033691 16.859538 21.167969 16.611328 L 21.167969 13.71875 C 21.029622 13.478678 20.850586 13.290527 20.630859 13.15625 C 20.415202 13.017904 20.154785 12.949219 19.849609 12.949219 z M 29 24 L 38 36 L 10 36 L 17 27 L 22 33.009766 L 29 24 z "
     id="path4163" />
</svg>

<svg xmlns="http://www.w3.org/2000/svg" fill="#F44336" viewBox="0 0 48 48"><path d="m10 6c-2.21 0-4 1.79-4 4v28c0 2.21 1.79 4 4 4h28c2.21 0 4-1.79 4-4v-28c0-2.21-1.79-4-4-4h-28m20.21 2.811c.142 0 .287.013.434.037.146.02.311.051.494.092l-.152 1.146c-.081-.016-.174-.029-.275-.041-.098-.012-.202-.02-.316-.02-.321 0-.564.092-.727.275-.159.183-.238.445-.238.787v.77h1.344v1.098h-1.344v5.506h-1.482v-5.506h-1.01v-1.098h1.01v-.77c0-.728.197-1.291.592-1.686.399-.395.956-.592 1.672-.592m-5.896.129h1.484v1.301h-1.484v-1.301m-4.84 2.795c.395 0 .74.087 1.037.258.301.167.556.407.764.725l.146-.859h1.232v6.604c0 .85-.262 1.507-.787 1.971-.525.464-1.27.697-2.234.697-.321 0-.669-.047-1.043-.141-.37-.09-.707-.211-1.01-.361l.318-1.166c.244.126.514.224.807.293.297.073.601.111.914.111.537 0 .93-.116 1.178-.348.248-.228.373-.581.373-1.057v-.678c-.208.264-.453.465-.738.604-.281.134-.604.203-.971.203-.81 0-1.444-.297-1.904-.887-.46-.59-.689-1.364-.689-2.324v-.129c0-1.05.23-1.898.689-2.545.46-.647 1.098-.971 1.916-.971m4.84.123h1.484v6.604h-1.484v-6.604m-4.461 1.092c-.509 0-.887.213-1.135.641-.244.427-.367.981-.367 1.66v.129c0 .606.121 1.093.361 1.459.244.362.62.543 1.129.543.317 0 .583-.065.799-.195.22-.134.397-.326.531-.574v-2.893c-.138-.24-.317-.428-.537-.563-.216-.138-.476-.207-.781-.207m9.15 11.05l9 12h-28l7-9 5 6.01 7-9.01"/></svg>
